X:1
T:Title
%%score ( 1 2 ) { 3 | 4 }
L:1/8
M:3/4
K:C
V:1 treble nm="Grand Piano, Soprano"
V:2 treble 
V:3 bass nm="Choir Pad, Lo! A Star, Ye Sages Hoary"
V:4 bass 
V:1
 E2 G2 [CA]2 | [FA]4 [DG]2 | [CG]2 [Ec]2 [FA]2 | A2- [EA]2 [FG]2 | G2- [DG]2 [CG]2 | A4 z2 | %6
w: By~Walter~Newport * *||||||
 c2 B2 [^FA]2 | A4 G2 | c2 G2 [EA]2 | [EG]4 [EG]2 | [CA]4 [Fd]2 | [Ec]4 [EB]2 | c2 B2 [EA]2 | %13
w: |||||||
 c2 B2 [^FA]2 | E2 D2 [C^F]2 | [B,G]6 | F2- [FB]2 [Fd]2 | [Ee]2 [Gc]2 [FA]2 | F2- [FB]2 [Fd]2 | %19
w: ||||||
 [Ee]4 [Ec]2 | e2 c2 [EA]2 | [^GB]4 [^FB]2 | B2- [^FB]2 [EB]2 | [FB]6 | [Ec]2 E2 [EA]2 | %25
w: ||||||
 [FA]4 [DG]2 | G2 c2 E2 | A2- [DA]2 [DG]2 | G4 z2 | A2- [FA]2 [EA]2 | [DG]6 | G6 | [EG]6- | %33
w: ||||||||
 [EG]2 z2 z2 |] %34
w: |
V:2
 C4 z2 | x6 | x6 | D2 z2 z2 | E2 z2 z2 | C2 D2 [CG]2 | ^F4 z2 | F6 | E4 z2 | x6 | x6 | x6 | E4 z2 | %13
 ^F4 z2 | x6 | x6 | G2 z2 z2 | x6 | G2 z2 z2 | x6 | E4 z2 | x6 | E2 z2 z2 | x6 | x6 | x6 | C4 z2 | %27
 E2 z2 z2 | C2 D2 [EG]2 | G2 z2 z2 | x6 | D2 E2 F2 | x6 | x6 |] %34
V:3
 G,2 E,2 E,2 | G,2 D2 B,2 | C4 C2 | B,4 B,2 | C2[K:bass] B,2 _B,2 | A,2 B,2 C2 | %6
 A,2[K:treble] D2 C2 | C2 A,2 B,2 | C4 C2 | C2[K:bass] G,2 _B,2 | A,4 A,2 | A,4 ^G,2 | %12
 A,2 ^G,2 A,2 | E2 D2 C2 | C2 B,2[K:bass] A,2 | G,6 | B,4 B,2 | C4 C2 | B,4 B,2 | C4 C2 | %20
 ^G,2 A,2 C2 | E4 _E2 | ^C2 _E2 =E2 | D6 | C2[K:bass] B,2 C2 | B,4 B,2 | G,4[K:treble] C2 | %27
 C4 B,2 | C2 B,2 _B,2 | A,2 D2 C2 | C6 | B,6 | C6- | C2 z2 z2 |] %34
V:4
 C,4 A,,2 | B,,4 F,2 | E,2 C,2 F,2 | F,2 E,2 D,2 | C,4 E,2 | F,4 E,2 | D,4 D,2 | G,6 | C,4 C,2 | %9
 C,4 C,2 | F,2 E,2 D,2 | E,4 E,2 | A,,2 B,,2 C,2 | D,4 D,2 | D,4 D,2 | z6 | G,4 G,2 | C,2 E,2 F,2 | %18
 G,4 G,2 | C,4 C,2 | E,4 E,2 | E,2 ^G,2 B,2 | B,2 A,2 ^G,2 | G,6 | z2 z2 A,2 | G,4 F,2 | E,4 C,E, | %27
 ^F,4 =F,2 | E,2 D,2 C,2 | F,4 ^F,2 | G,6 | G,,6 | C,6- | C,2 z2 z2 |] %34

